X: 2438
M: 3/4
L: 1/8
K: G
"Moderato."(ed) |\
(^c2d2)B2 | G4 (ed) | (^c2d2)B2 | (d2=c2)(dc) |\
(B2c2)A2 | F4 (ed) | ^cded=cA | G4 :|
|: d2 |\
(B2d2)d2 | (B2d2)d2 | gfedcB | (d2c2)c2 |\
(A2c2)c2 | (A2c2)c2 | agfedc | c2B2 :|
"Allegro."d2 |\
g2f2e2 | d2^c2d2 | e2d2^c2 | d2B2d2 |\
g2f2e2 | d2^c2d2 | e2d2^c2 | d4d2 |
ggffee | dd^ccdd | eedd^cc | ddBBdd | ggffee | dd^ccdd | e2z2[f2A2] | [g2B2D2]z2z2 |]
e6 | d6 | c2d3c | B6 |\
e6 | d6 | f2e2f2 | g6 |\


